X: 98
T:Archbishop, The
T:Trip to Teddington
L:1/4
M:2/2
K:D
|:A|"D"d "A"A2G|"D"FD2D|"A"CEAG|"D"FD2A|\
dA2^G|"A"Ae2"D"d|"A"ce"E"Bd|"A"cA2:|
A|"A"ec2B|"F#"^AF2e|"Bm"df"F#"F^A|"Bm"BB2e|dB2A|\
"E"^GE2d|"A"cB"E"A^G|"A"AA2||
A|"D"d "A"A2G|"D"FD2D|"A"CEAG|"D"FA"G"dg|\
"D"fd2"A"c|"D"dA2"G"G|"D"FA"A"eg|"D"fd2|]

